X:16
T:Jenny Lind Polka
T:Dance: Hunt the Snark
R:polka
M:2/4
L:1/8
K:D
P:A
FA GB | Af f/e/f | Ge e/d/e | Fd dA/G/ |
FA GB | Af f/e/f | ge c/d/e/c/ | df d2 |]
P:B
dB B/c/d/B/ | AF F/G/A/F/ | GE E/F/G/E/ | FD DF/A/ |
dB B/c/d/B/ | AF F/G/A/F/ | GE E/F/G/E/ | DF D2 |]
P:C
AA dF | AGG/F/G | AA gc | ed d/c/d |
AA dF | AGG/F/G | AA gc | df d2 |]
P:D
K:G
B/c/d B/c/d | eF F/E/F | eF F/E/F | ge d2 |
B/c/d B/c/d | eF F/E/F | eF DF | GB GA/G/ |]
